X:86
T:The Duke's Hunt - Olver
C:Taken down from Jas. Olver by F.W.B. 1888.
%%VWML:SBG-1-1-387-0
F:http://www.vwml.org/record/SBG/1/1/387
Z:Original Sibleius Transcription by Martin and Shan Graebe
L:1/8
M:6/8
I:linebreak $
K:Bb
F/ F/ | (B2 d) c2 d | B2 B B2 B | D2 E F2 E | D2 C B,2 B/ B/ | c3 c2 c | c3 (A2 F) | F3 B3- | 
B2 z2 z A |$ B2 c d2 c | (Bc) d e2 e | d2 c B2 G | F2 E D2 D | F6 | G2 A B2 G | (c3 A2) F | 
F3 B2 | B/ c/ |$[M:4/4] d2 d2 c3/2 c/ c2 | F3/2 F/ F E D2 B D | E F G E F e d c | B4 B2 z2 |$ 
d2 d d c2 c2 | F F F E D2 BD | EF G E Fe d c |[M:6/8]{cd} c3 B2 z |] 



